assets/picture.svg

<svg height="360" viewBox="0 0 640 360" width="640" xmlns="http://www.w3.org/2000/svg"><g fill="none" fill-rule="evenodd"><path d="m0 0h640v360h-640z" fill="#337ab7"/><g transform="translate(167 156)"><path d="m40.9873351 4.8c-1.5390501-2.5220339-4.5361478-4.5559322-9.8013193-4.5559322h-14.9044855c-2.2680738 0-3.807124 1.05762712-4.5361477 1.62711864-1.7010554 1.38305085-2.18707125 3.09152542-2.59208445 4.47457627l-8.10026385 27.33559319c-.64802111 2.1152543-.08100264 3.2542373.48601583 3.8237288.24300792.2440678 1.13403694 1.0576272 3.96912929 1.0576272h15.47150398c5.9941952 0 9.9633245-2.6847458 12.0693931-4.7186441 4.2931399-4.1491525 6.4802111-10.7389831 7.6952507-14.8881356 1.2960422-4.5559322 2.7540897-10.08813559.2430079-14.1559322zm-7.5332454 13.5864407c-1.8630607 6.5084746-3.7261214 9.3559322-5.1031662 10.820339-2.4300792 2.6847457-5.2651715 3.579661-9.2343008 3.579661h-8.2622691c-.6480211 0-1.37704489 0-1.70105545-.5694915-.40501319-.5694916-.08100264-1.301695.08100264-2.1152543l6.39920841-21.88474575c.243008-.81355932.8100264-1.54576271 1.2960423-1.95254237.5670184-.40677966 1.3770448-.40677966 1.782058-.40677966h7.4522427c2.5920845 0 5.83219.48813559 7.3712401 2.76610169 1.7820581 2.68474579.8910291 6.50847459-.0810026 9.76271189zm32.0770449-8.86779663h-16.362533l-1.4580475 4.88135593h14.1754617c.9720317 0 2.1870713.1627119 2.7540897 1.220339.4860159.8949152.243008 1.8711864 0 2.7661017l-.5670184 2.0338983h-12.4744064c-1.5390501 0-3.4831134.0813559-5.7511873 1.7084746-2.7540897 1.9525423-3.7261214 4.4745762-4.5361478 7.0779661-.6480211 2.1152542-1.5390501 5.8576271.1620053 7.8915254 1.2150396 1.3830508 3.2401056 1.3830508 4.7791557 1.3830508h13.7704485c1.3770449 0 2.9970977-.0813559 4.2931399-1.138983 1.3770448-1.0576271 1.9440633-2.6847458 2.2680739-3.7423729l4.3741424-15.0508475c.9720317-3.2542372.7290238-5.6135593-.1620052-6.8338983-.8100264-1.3016949-2.7540897-2.19661013-5.2651715-2.19661013zm-4.7791557 22.53559323c-.1620053.4067796-.2430079.8135593-.8100264 1.220339-.5670185.3254237-1.1340369.3254237-1.5390501.3254237h-8.9102903c-.8100263 0-1.5390501-.4067797-1.782058-.8949153-.4860158-.8135593-.1620053-2.359322.0810026-3.2542372.5670185-2.1152543 1.2960422-2.8474577 1.6200528-3.0915255.9720317-.8949152 2.1870712-.9762712 2.5920844-.9762712h10.6113457zm20.4936675.3254237c-1.3770448-1.5457627-.4050132-4.2305085.1620053-6.2644068l3.4021108-11.6338983h8.0192612l1.4580475-4.8813559h-8.0192612l2.7540897-9.27457627h-6.3992084l-2.7540897 9.27457627h-3.9691293l-1.4580475 4.8813559h3.9691293l-4.2931399 14.5627119c-1.0530343 3.6610169-.6480211 5.7762712.7290238 7.3220339 1.3770448 1.4644068 3.2401055 2.1152542 7.1282322 2.1152542h3.9691293l1.4580475-4.8813559h-1.5390502c-1.2150395 0-3.5641161-.0813559-4.6171504-1.220339zm33.1300796-22.86101693h-16.3625334l-1.4580475 4.88135593h14.1754619c.972032 0 2.187071.1627119 2.75409 1.220339.486015.8949152.243007 1.8711864 0 2.7661017l-.567019 2.0338983h-12.555409c-1.53905 0-3.4831133.0813559-5.7511872 1.7084746-2.7540897 1.9525423-3.7261214 4.4745762-4.5361478 7.0779661-.6480211 2.1152542-1.5390501 5.8576271.1620053 7.8915254 1.2150396 1.3830508 3.2401056 1.3830508 4.7791557 1.3830508h13.770449c1.377044 0 2.997097-.0813559 4.293139-1.138983 1.377045-1.0576271 1.944064-2.6847458 2.268074-3.7423729l4.374143-15.0508475c.972031-3.2542372.729023-5.6135593-.162006-6.8338983-.810026-1.3016949-2.754089-2.19661013-5.184168-2.19661013zm-4.860159 22.53559323c-.162005.4067796-.243008.8135593-.810026 1.220339-.567019.3254237-1.134037.3254237-1.53905.3254237h-8.9102905c-.8100264 0-1.5390501-.4067797-1.782058-.8949153-.4860159-.8135593-.1620053-2.359322.0810026-3.2542372.5670185-2.1152543 1.2960422-2.8474577 1.6200528-3.0915255.9720317-.8949152 2.1870711-.9762712 2.5920841-.9762712h10.611346zm194.32533-19.7694915c-2.268074-.6508475-4.61715.7322034-5.184169 3.0101695-.162005.5694915-.162005 1.2203389-.081002 1.7898305l-12.150396 9.0305084c-.081003 0-.162005-.0813559-.324011-.0813559-.891029-.2440678-1.86306-.1627119-2.673087.1627119l-10.692348-7.240678c.081003-1.9525424-1.134037-3.8237288-3.159103-4.3118644-2.268074-.6508475-4.61715.7322034-5.184169 3.0101695-.162005.4881356-.162005 1.0576271-.081003 1.5457627l-9.882321 7.6474576c-.243008-.0813559-.405014-.1627118-.648022-.2440678-2.268073-.6508474-4.61715.7322034-5.184168 3.0101695-.567019 2.2779661.729023 4.6372882 2.997097 5.2067797s4.617151-.7322034 5.184169-3.0101695c.081003-.4067797.162005-.8135593.081003-1.3016949l10.044327-7.8101695c.162005.0813559.243008.1627118.405013.1627118.972032.2440678 1.944063.1627119 2.835092-.2440677l10.530343 7.159322c-.162005 2.0338983 1.134037 3.9864407 3.159103 4.4745763 2.268074.6508474 4.617151-.7322034 5.184169-3.0101695.162006-.5694916.162006-1.1389831.081003-1.7084746l12.231398-9.1118644c.081003 0 .162006.0813559.243008.0813559 2.268074.6508475 4.617151-.7322034 5.184169-3.0101695.729024-2.1966101-.648021-4.5559322-2.916095-5.2067796z" fill="#fff"/><g fill="#4eb6d9" fill-rule="nonzero" transform="translate(118.263852 8.949153)"><path d="m115.023747 29.6135593 1.458047-4.8813559h-14.094459c-2.349076 0-4.9411609-.3254237-4.7791556-3.4169492 0-.8949152.4050132-2.7661017.8100264-3.9864406h16.6055412c1.134037 0 2.268074-.2440678 3.402111-1.0576272 1.53905-1.2203389 2.187071-2.9288135 2.673087-4.3932203 1.053034-3.66101695 1.458047-7.24067796-1.296043-9.43728813-2.187071-1.70847458-5.589182-1.87118644-8.991293-1.87118644-2.754089 0-7.614248 0-11.5833768 2.76610169-3.9691293 2.7661017-5.4271768 6.75254238-6.9662269 12.12203388-1.134037 3.8237288-2.1060686 7.8101695-1.0530343 10.5762712 1.3770448 3.4169492 4.7791556 3.661017 7.7762533 3.661017h16.0385227zm-15.309499-17.3288135c.648021-1.9525424 1.053034-3.49830512 2.75409-4.9627119 2.349076-1.95254237 4.941161-1.95254237 6.642216-1.95254237 1.782058 0 3.807124.08135593 5.022164 1.30169491.729023.73220339 1.215039 2.11525424.729023 3.90508476-.243007.7322034-.648021 1.7084746-1.944063 1.7084746z"/><path d="m.08100264 29.6135593h6.39920844l6.56121372-22.5355932c.0810026-.40677966.2430079-.81355932.6480211-1.22033898.4050132-.32542373.8100264-.32542373 1.2150396-.32542373h6.4802111c2.3490765 0 3.4831134.56949153 4.0501319 1.78983051.6480211 1.38305085.2430079 3.2542373-.3240106 5.1254237l-5.0221635 17.1661017h6.3992084l5.5891821-19.118644c1.1340369-3.98644072.4860158-6.18305089-.6480212-7.56610174-1.7010554-2.11525424-4.3741424-2.35932203-7.3712401-2.35932203h-10.2063324c-1.2150396 0-3.1591029-.08135594-4.77915569 1.30169491-1.13403693.89491525-1.62005277 2.2779661-1.86306068 3.09152542z"/><path d="m67.8802111.73220339h-6.4802111l-16.2815303 22.12881351-2.7540898-22.29152537h-6.5612137l4.3741425 28.88135597-7.2092348 9.4372881h6.4802111z"/><path d="m87.8068602 24.6508475h-16.4435357c-.2430079 0-.4860158.0813559-.4050132-.2440678.0810027-.2440678.3240106-.4067797.6480212-.7322034l19.5216358-15.45762715c1.0530343-.81355932 2.1870713-1.70847457 2.8350924-3.90508474.6480211-2.2779661-.4860158-3.66101695-2.6730871-3.66101695h-20.4126649l-1.4580475 4.88135593h15.7145119c.4050132 0 .4860158.2440678.4050132.40677966 0 .08135593-.1620053.2440678-.6480211.65084746l-19.1976254 14.88813559c-1.2960422.9762712-2.5110818 1.9525424-3.1591029 4.1491525-1.0530343 3.7423729 1.9440634 3.9050848 2.916095 3.9050848h20.8176781z"/></g></g></g></svg>

<?xml version="1.0" encoding="UTF-8"?>
<svg width="640px" height="360px" viewBox="0 0 640 360" version="1.1" xmlns="http://www.w3.org/2000/svg" xmlns:xlink="http://www.w3.org/1999/xlink">
    <!-- Generator: Sketch 50.2 (55047) - http://www.bohemiancoding.com/sketch -->
    <title>datanyze/picture</title>
    <desc>Created with Sketch.</desc>
    <defs></defs>
    <g id="datanyze/picture" stroke="none" stroke-width="1" fill="none" fill-rule="evenodd">
        <rect id="Rectangle" fill="#337AB7" x="0" y="0" width="640" height="360"></rect>
        <g id="datanyze" transform="translate(167.000000, 156.000000)">
            <path d="M40.9873351,4.8 C39.448285,2.2779661 36.4511873,0.244067797 31.1860158,0.244067797 L16.2815303,0.244067797 C14.0134565,0.244067797 12.4744063,1.30169492 11.7453826,1.87118644 C10.0443272,3.25423729 9.55831135,4.96271186 9.15329815,6.34576271 L1.0530343,33.6813559 C0.405013193,35.7966102 0.972031662,36.9355932 1.53905013,37.5050847 C1.78205805,37.7491525 2.67308707,38.5627119 5.50817942,38.5627119 L20.9796834,38.5627119 C26.9738786,38.5627119 30.9430079,35.8779661 33.0490765,33.8440678 C37.3422164,29.6949153 39.5292876,23.1050847 40.7443272,18.9559322 C42.0403694,14.4 43.4984169,8.86779661 40.9873351,4.8 Z M33.4540897,18.3864407 C31.591029,24.8949153 29.7279683,27.7423729 28.3509235,29.2067797 C25.9208443,31.8915254 23.085752,32.7864407 19.1166227,32.7864407 L10.8543536,32.7864407 C10.2063325,32.7864407 9.47730871,32.7864407 9.15329815,32.2169492 C8.74828496,31.6474576 9.07229551,30.9152542 9.23430079,30.1016949 L15.6335092,8.21694915 C15.8765172,7.40338983 16.4435356,6.67118644 16.9295515,6.26440678 C17.4965699,5.85762712 18.3065963,5.85762712 18.7116095,5.85762712 L26.1638522,5.85762712 C28.7559367,5.85762712 31.9960422,6.34576271 33.5350923,8.62372881 C35.3171504,11.3084746 34.4261214,15.1322034 33.4540897,18.3864407 Z M65.5311346,9.51864407 L49.1686016,9.51864407 L47.7105541,14.4 L61.8860158,14.4 C62.8580475,14.4 64.0730871,14.5627119 64.6401055,15.620339 C65.1261214,16.5152542 64.8831135,17.4915254 64.6401055,18.3864407 L64.0730871,20.420339 L51.5986807,20.420339 C50.0596306,20.420339 48.1155673,20.5016949 45.8474934,22.1288136 C43.0934037,24.0813559 42.121372,26.6033898 41.3113456,29.2067797 C40.6633245,31.3220339 39.7722955,35.0644068 41.4733509,37.0983051 C42.6883905,38.4813559 44.7134565,38.4813559 46.2525066,38.4813559 L60.0229551,38.4813559 C61.4,38.4813559 63.0200528,38.4 64.316095,37.3423729 C65.6931398,36.2847458 66.2601583,34.6576271 66.5841689,33.6 L70.9583113,18.5491525 C71.930343,15.2949153 71.6873351,12.9355932 70.7963061,11.7152542 C69.9862797,10.4135593 68.0422164,9.51864407 65.5311346,9.51864407 Z M60.7519789,32.0542373 C60.5899736,32.4610169 60.508971,32.8677966 59.9419525,33.2745763 C59.374934,33.6 58.8079156,33.6 58.4029024,33.6 L49.4926121,33.6 C48.6825858,33.6 47.953562,33.1932203 47.7105541,32.7050847 C47.2245383,31.8915254 47.5485488,30.3457627 47.7915567,29.4508475 C48.3585752,27.3355932 49.0875989,26.6033898 49.4116095,26.359322 C50.3836412,25.4644068 51.5986807,25.3830508 52.0036939,25.3830508 L62.6150396,25.3830508 L60.7519789,32.0542373 Z M81.2456464,32.379661 C79.8686016,30.8338983 80.8406332,28.1491525 81.4076517,26.1152542 L84.8097625,14.4813559 L92.8290237,14.4813559 L94.2870712,9.6 L86.26781,9.6 L89.0218997,0.325423729 L82.6226913,0.325423729 L79.8686016,9.6 L75.8994723,9.6 L74.4414248,14.4813559 L78.4105541,14.4813559 L74.1174142,29.0440678 C73.0643799,32.7050847 73.4693931,34.820339 74.846438,36.3661017 C76.2234828,37.8305085 78.0865435,38.4813559 81.9746702,38.4813559 L85.9437995,38.4813559 L87.401847,33.6 L85.8627968,33.6 C84.6477573,33.6 82.2986807,33.5186441 81.2456464,32.379661 Z M114.375726,9.51864407 L98.0131926,9.51864407 L96.5551451,14.4 L110.730607,14.4 C111.702639,14.4 112.917678,14.5627119 113.484697,15.620339 C113.970712,16.5152542 113.727704,17.4915254 113.484697,18.3864407 L112.917678,20.420339 L100.362269,20.420339 C98.823219,20.420339 96.8791557,20.5016949 94.6110818,22.1288136 C91.8569921,24.0813559 90.8849604,26.6033898 90.074934,29.2067797 C89.4269129,31.3220339 88.5358839,35.0644068 90.2369393,37.0983051 C91.4519789,38.4813559 93.4770449,38.4813559 95.016095,38.4813559 L108.786544,38.4813559 C110.163588,38.4813559 111.783641,38.4 113.079683,37.3423729 C114.456728,36.2847458 115.023747,34.6576271 115.347757,33.6 L119.7219,18.5491525 C120.693931,15.2949153 120.450923,12.9355932 119.559894,11.7152542 C118.749868,10.4135593 116.805805,9.51864407 114.375726,9.51864407 Z M109.515567,32.0542373 C109.353562,32.4610169 109.272559,32.8677966 108.705541,33.2745763 C108.138522,33.6 107.571504,33.6 107.166491,33.6 L98.2562005,33.6 C97.4461741,33.6 96.7171504,33.1932203 96.4741425,32.7050847 C95.9881266,31.8915254 96.3121372,30.3457627 96.5551451,29.4508475 C97.1221636,27.3355932 97.8511873,26.6033898 98.1751979,26.359322 C99.1472296,25.4644068 100.362269,25.3830508 100.767282,25.3830508 L111.378628,25.3830508 L109.515567,32.0542373 Z M303.840897,12.2847458 C301.572823,11.6338983 299.223747,13.0169492 298.656728,15.2949153 C298.494723,15.8644068 298.494723,16.5152542 298.575726,17.0847458 L286.42533,26.1152542 C286.344327,26.1152542 286.263325,26.0338983 286.101319,26.0338983 C285.21029,25.7898305 284.238259,25.8711864 283.428232,26.1966102 L272.735884,18.9559322 C272.816887,17.0033898 271.601847,15.1322034 269.576781,14.6440678 C267.308707,13.9932203 264.959631,15.3762712 264.392612,17.6542373 C264.230607,18.1423729 264.230607,18.7118644 264.311609,19.2 L254.429288,26.8474576 C254.18628,26.7661017 254.024274,26.6847458 253.781266,26.6033898 C251.513193,25.9525424 249.164116,27.3355932 248.597098,29.6135593 C248.030079,31.8915254 249.326121,34.2508475 251.594195,34.820339 C253.862269,35.3898305 256.211346,34.0881356 256.778364,31.8101695 C256.859367,31.4033898 256.940369,30.9966102 256.859367,30.5084746 L266.903694,22.6983051 C267.065699,22.779661 267.146702,22.8610169 267.308707,22.8610169 C268.280739,23.1050847 269.25277,23.0237288 270.143799,22.6169492 L280.674142,29.7762712 C280.512137,31.8101695 281.808179,33.7627119 283.833245,34.2508475 C286.101319,34.9016949 288.450396,33.5186441 289.017414,31.240678 C289.17942,30.6711864 289.17942,30.1016949 289.098417,29.5322034 L301.329815,20.420339 C301.410818,20.420339 301.491821,20.5016949 301.572823,20.5016949 C303.840897,21.1525424 306.189974,19.7694915 306.756992,17.4915254 C307.486016,15.2949153 306.108971,12.9355932 303.840897,12.2847458 Z" id="Shape" fill="#FFFFFF"></path>
            <g id="Group" transform="translate(118.263852, 8.949153)" fill="#4EB6D9" fill-rule="nonzero">
                <path d="M115.023747,29.6135593 L116.481794,24.7322034 L102.387335,24.7322034 C100.038259,24.7322034 97.4461741,24.4067797 97.6081794,21.3152542 C97.6081794,20.420339 98.0131926,18.5491525 98.4182058,17.3288136 L115.023747,17.3288136 C116.157784,17.3288136 117.291821,17.0847458 118.425858,16.2711864 C119.964908,15.0508475 120.612929,13.3423729 121.098945,11.8779661 C122.151979,8.21694915 122.556992,4.63728814 119.802902,2.44067797 C117.615831,0.73220339 114.21372,0.569491525 110.811609,0.569491525 C108.05752,0.569491525 103.197361,0.569491525 99.2282322,3.33559322 C95.2591029,6.10169492 93.8010554,10.0881356 92.2620053,15.4576271 C91.1279683,19.2813559 90.1559367,23.2677966 91.208971,26.0338983 C92.5860158,29.4508475 95.9881266,29.6949153 98.9852243,29.6949153 L115.023747,29.6949153 L115.023747,29.6135593 Z M99.714248,12.2847458 C100.362269,10.3322034 100.767282,8.78644068 102.468338,7.3220339 C104.817414,5.36949153 107.409499,5.36949153 109.110554,5.36949153 C110.892612,5.36949153 112.917678,5.45084746 114.132718,6.67118644 C114.861741,7.40338983 115.347757,8.78644068 114.861741,10.5762712 C114.618734,11.3084746 114.21372,12.2847458 112.917678,12.2847458 L99.714248,12.2847458 Z" id="Shape"></path>
                <path d="M0.0810026385,29.6135593 L6.48021108,29.6135593 L13.0414248,7.0779661 C13.1224274,6.67118644 13.2844327,6.26440678 13.6894459,5.85762712 C14.0944591,5.53220339 14.4994723,5.53220339 14.9044855,5.53220339 L21.3846966,5.53220339 C23.7337731,5.53220339 24.86781,6.10169492 25.4348285,7.3220339 C26.0828496,8.70508475 25.6778364,10.5762712 25.1108179,12.4474576 L20.0886544,29.6135593 L26.4878628,29.6135593 L32.0770449,10.4949153 C33.2110818,6.50847458 32.5630607,4.31186441 31.4290237,2.92881356 C29.7279683,0.813559322 27.0548813,0.569491525 24.0577836,0.569491525 L13.8514512,0.569491525 C12.6364116,0.569491525 10.6923483,0.488135593 9.07229551,1.87118644 C7.93825858,2.76610169 7.45224274,4.14915254 7.20923483,4.96271186 L0.0810026385,29.6135593 Z" id="Shape"></path>
                <polygon id="Shape" points="67.8802111 0.73220339 61.4 0.73220339 45.1184697 22.8610169 42.3643799 0.569491525 35.8031662 0.569491525 40.1773087 29.4508475 32.9680739 38.8881356 39.448285 38.8881356"></polygon>
                <path d="M87.8068602,24.6508475 L71.3633245,24.6508475 C71.1203166,24.6508475 70.8773087,24.7322034 70.9583113,24.4067797 C71.039314,24.1627119 71.2823219,24 71.6063325,23.6745763 L91.1279683,8.21694915 C92.1810026,7.40338983 93.3150396,6.50847458 93.9630607,4.31186441 C94.6110818,2.03389831 93.4770449,0.650847458 91.2899736,0.650847458 L70.8773087,0.650847458 L69.4192612,5.53220339 L85.1337731,5.53220339 C85.5387863,5.53220339 85.6197889,5.77627119 85.5387863,5.93898305 C85.5387863,6.02033898 85.376781,6.18305085 84.8907652,6.58983051 L65.6931398,21.4779661 C64.3970976,22.4542373 63.182058,23.4305085 62.5340369,25.6271186 C61.4810026,29.3694915 64.4781003,29.5322034 65.4501319,29.5322034 L86.26781,29.5322034 L87.8068602,24.6508475 Z" id="Shape"></path>
            </g>
        </g>
    </g>
</svg>
